!!!COM: Claude Goudimel
!!!OMD: Psalm 32: O bien-heureux celui dont
**kern	**kern	**kern	**kern
*part4	*part3	*part2	*part1
*staff4	*staff3	*staff2	*staff1
*I"bassus	*I"tenor	*I"contra	*I"superius
*clefF3	*clefC3	*clefC2	*clefG2
*k[b-]	*k[b-]	*k[b-]	*k[b-]
!!LO:TX:omd:t=
*M2/2	*M2/2	*M2/2	*M2/2
*met(c|)	*met(c|)	*met(c|)	*met(c|)
=1	=1	=1	=1
1F	1F	1A	1c
=2	=2	=2	=2
1D	1A	1d	1f
=3	=3	=3	=3
1G	1B-	1d	1g
=4	=4	=4	=4
1F	1c	1f	1a
=5	=5	=5	=5
1C	1c	1e	1g
=6	=6	=6	=6
2F	2c	2f	2a
2F	2A	2c	2f
=7	=7	=7	=7
2D	2B-	2d	2f
2C	2c	2e	2a
=8	=8	=8	=8
1BB-	1d	1f	1b-
=9	=9	=9	=9
2F	2c	2f	2a
2G	2B-	2d	2g
=10	=10	=10	=10
2D	2A	2d	2g
2D	2A	2d	2f
=11	=11	=11	=11
1G	1G	1d	1g
=12	=12	=12	=12
1F	1c	1f	1a
=13	=13	=13	=13
2BB-	2d	2f	2b-
2C	2c	2e-X	2a
=14	=14	=14	=14
2E-X	2B-	2e-X	2g
2F	2A	2c	[2f
=15	=15	=15	=15
1C	1G	1c	2f]
.	.	.	2e
=16	=16	=16	=16
1F	1F	1c	1f
=17	=17	=17	=17
1r	1r	1r	1r
=18	=18	=18	=18
1F	1F	1A	1c
=19	=19	=19	=19
2D	2A	2d	2f
2G	2B-	2d	2g
=20	=20	=20	=20
1C	1c	1e	1g
=21	=21	=21	=21
1F	1c	1f	1a
=22	=22	=22	=22
2BB-	2d	2f	2b-
2F	2c	2f	2a
=23	=23	=23	=23
2G	2B-	2d	2g
2G	2B-	2d	2g
=24	=24	=24	=24
1D	1A	1d	1f#X
=25	=25	=25	=25
1r	1r	1r	1r
=26	=26	=26	=26
1F	1c	1A	1f
=27	=27	=27	=27
2BB-	2B-	2d	2f
2F	2A	2c	2f
=28	=28	=28	=28
1C	1G	1c	1e
=29	=29	=29	=29
1F	1A	1c	1f
=30	=30	=30	=30
2BB-	2B-	2d	2f
2C	2A	2c	[2a
=31	=31	=31	=31
1D	1F	1A	2a]
.	.	.	[2f
=32	=32	=32	=32
1C	1G	1c	2f]
.	.	.	2e
=33	=33	=33	=33
1F	1F	1c	1f
=34	=34	=34	=34
1r	1r	1r	1r
=35	=35	=35	=35
1F	1f	1a	1cc
=36	=36	=36	=36
2F	2f	2a	2cc
2F	2f	2a	2cc
=37	=37	=37	=37
1c	1e	1g	1cc
=38	=38	=38	=38
1F	1c	1f	1a
=39	=39	=39	=39
2D	2d	2f	2a
2C	2e	2g	2cc
=40	=40	=40	=40
2F	2f	2a	2cc
2C	2e	2g	[2cc
=41	=41	=41	=41
1G	1d	1g	2cc]
.	.	.	2bn
=42	=42	=42	=42
1C	1c	1g	1cc
=43	=43	=43	=43
1r	1r	1r	1r
=44	=44	=44	=44
1F	1c	1f	1a
=45	=45	=45	=45
2C	2c	2e	2g
2F	2c	2f	2a
=46	=46	=46	=46
1BB-	1d	1f	1b-
=47	=47	=47	=47
1F	1c	1f	1a
=48	=48	=48	=48
2G	2B-	2d	2g
2D	2d	2f	2a
=49	=49	=49	=49
2F	2c	2f	2a
2G	2B-	2d	[2g
=50	=50	=50	=50
1D	1A	1d	2g]
.	.	.	2f#X
=51	=51	=51	=51
1G	1G	1d	1g
=52	=52	=52	=52
1r	1r	1r	1r
=53	=53	=53	=53
1F	1c	1f	1a
=54	=54	=54	=54
2A	2c	2e	2a
2A	2c	2e	2a
=55	=55	=55	=55
1G	1d	1g	1b-
=56	=56	=56	=56
1F	1f	1a	1cc
=57	=57	=57	=57
2A	2e	2a	2cc
2A	2c	2e	2a
=58	=58	=58	=58
2G	2d	2g	2b-
2G	2d	2g	2b-
=59	=59	=59	=59
1C	1c	1e	1cc
=60	=60	=60	=60
1r	1r	1r	1r
=61	=61	=61	=61
1F	1c	1f	1a
=62	=62	=62	=62
2BB-	2d	2f	2b-
2BB-	2d	2f	2b-
=63	=63	=63	=63
1F	1c	1f	1a
=64	=64	=64	=64
1BB-	1B-	1d	1f
=65	=65	=65	=65
2F	2A	2c	2f
2C	2G	2c	2e
=66	=66	=66	=66
1D	1F	1A	2d
.	.	.	[2f
=67	=67	=67	=67
1C	1G	1c	2f]
.	.	.	2e
=68	=68	=68	=68
1F;	1F;	1c;	1f;
==	==	==	==
*-	*-	*-	*-
!!!software: music21 v.9.7.1
!!!software: music21 v.9.1.0
!!!RDF**kern: > = above
!!!RDF**kern: < = below
